X: 5036
T: Brian O'Lynn
R: jig
M: 6/8
K: Adorian
|:B|cAd cAG|E^DE GAB|cAd c2 G|Ad/c/d =fed|
cAd c2 G|EGE GAB|cde =fed|cA^G A2:|
|:e/f/|gag ged|cAB c2 d|eaa age|ed^c def|
gg/g/g ged|c/B/AB cde|=fed cAG|EA^G A2:|

